X:245
T:the Lass of Paties Mill
O:scotland
R:Reel
M:4/4
K:D
A2 |\
{A}GFED F2A2 | d3e f2A2 | Bcdc BAGF | F4 E2AG|\
GFED F2A2 | d3e f2A2 |
BcdB cdef | d6 ::\
ef |\
gfed dcBA | dcde f2A2 |
Bcdc BAGF | F4 E2 AG |\
GFED F2A2 | d3e f2A2 | BcdB cdef | d6 :|
